Origami/24x24/apps/cutecom.svg

<svg width="24" height="24" version="1" xmlns="http://www.w3.org/2000/svg">
 <path d="m4.999985 3h13.99995v7h-13.99995z" style="fill:#b7b7b7"/>
 <path d="m4.999985 3v0.5h13.99995v-0.5z" style="fill:#ffffff;opacity:.2"/>
 <rect x="2" y="9" width="20" height="12" rx="1" ry="1" style="fill:#4f4f4f"/>
 <path d="m6 11v2h12v-2h-12zm1 3v2h10v-2h-10zm1 3v2h8v-2h-8z" style="opacity:.4"/>
 <path d="m2 20v0.5c0 0.554 0.446 1 1 1h18c0.554 0 1-0.446 1-1v-0.5c0 0.554-0.446 1-1 1h-18c-0.554 0-1-0.446-1-1z" style="opacity:.2"/>
</svg>

<svg xmlns="http://www.w3.org/2000/svg" width="24" height="24" version="1">
 <path style="fill:#b7b7b7" d="m 4.999985,3 h 13.99995 v 7 H 4.999985 Z"/>
 <path style="opacity:0.2;fill:#ffffff" d="m 4.999985,3 v 0.5 h 13.99995 V 3 Z"/>
 <rect style="fill:#4f4f4f" width="20" height="12" x="2" y="9" rx="1" ry="1"/>
 <path style="opacity:0.4" d="M 6 11 L 6 13 L 18 13 L 18 11 L 6 11 z M 7 14 L 7 16 L 17 16 L 17 14 L 7 14 z M 8 17 L 8 19 L 16 19 L 16 17 L 8 17 z"/>
 <path style="opacity:0.2" d="m 2,20 v 0.5 c 0,0.554 0.446,1 1,1 h 18 c 0.554,0 1,-0.446 1,-1 V 20 c 0,0.554 -0.446,1 -1,1 H 3 C 2.446,21 2,20.554 2,20 Z"/>
</svg>
